build/img/icons/tel.svg

<svg width="19" height="19" viewBox="0 0 19 19" fill="none" xmlns="http://www.w3.org/2000/svg">
<path d="M17.3928 14.5114C17.3928 14.7964 17.3295 15.0893 17.1949 15.3743C17.0603 15.6593 16.8862 15.9285 16.6566 16.1818C16.2687 16.6093 15.8412 16.9181 15.3583 17.116C14.8833 17.3139 14.3687 17.4168 13.8145 17.4168C13.007 17.4168 12.1441 17.2268 11.2337 16.8389C10.3233 16.451 9.41284 15.9285 8.51034 15.2714C7.5905 14.5986 6.72251 13.8576 5.91367 13.0547C5.11311 12.2488 4.37475 11.3834 3.70492 10.466C3.05575 9.5635 2.53325 8.661 2.15325 7.76641C1.77325 6.86391 1.58325 6.001 1.58325 5.17766C1.58325 4.63933 1.67825 4.12475 1.86825 3.64975C2.05825 3.16683 2.35909 2.7235 2.77867 2.32766C3.28534 1.82891 3.8395 1.5835 4.42534 1.5835C4.647 1.5835 4.86867 1.631 5.06659 1.726C5.27242 1.821 5.4545 1.9635 5.597 2.16933L7.43367 4.75808C7.57617 4.956 7.67909 5.13808 7.75034 5.31225C7.82159 5.4785 7.86117 5.64475 7.86117 5.79516C7.86117 5.98516 7.80575 6.17516 7.69492 6.35725C7.592 6.53933 7.44159 6.72933 7.25159 6.91933L6.64992 7.54475C6.56284 7.63183 6.52325 7.73475 6.52325 7.86141C6.52325 7.92475 6.53117 7.98016 6.547 8.0435C6.57075 8.10683 6.5945 8.15433 6.61034 8.20183C6.75284 8.46308 6.99825 8.8035 7.34659 9.21516C7.70284 9.62683 8.08284 10.0464 8.4945 10.466C8.922 10.8856 9.33367 11.2735 9.75325 11.6297C10.1649 11.9781 10.5053 12.2156 10.7745 12.3581C10.8141 12.3739 10.8616 12.3977 10.917 12.4214C10.9803 12.4452 11.0437 12.4531 11.1149 12.4531C11.2495 12.4531 11.3524 12.4056 11.4395 12.3185L12.0412 11.7247C12.2391 11.5268 12.4291 11.3764 12.6112 11.2814C12.7933 11.1706 12.9753 11.1152 13.1733 11.1152C13.3237 11.1152 13.482 11.1468 13.6562 11.2181C13.8303 11.2893 14.0124 11.3922 14.2103 11.5268L16.8308 13.3872C17.0366 13.5297 17.1791 13.696 17.2662 13.8939C17.3453 14.0918 17.3928 14.2897 17.3928 14.5114Z"  stroke-width="1.5" stroke-miterlimit="10"/>
</svg>

<svg width="19" height="19" viewBox="0 0 19 19" fill="none" xmlns="http://www.w3.org/2000/svg"><path d="M17.393 14.511c0 .285-.064.578-.198.863a3.266 3.266 0 0 1-.538.808 3.569 3.569 0 0 1-1.299.934c-.475.198-.99.3-1.543.3-.808 0-1.67-.19-2.581-.577-.91-.388-1.821-.91-2.724-1.568a22.752 22.752 0 0 1-2.596-2.216 22.497 22.497 0 0 1-2.21-2.589c-.648-.902-1.17-1.805-1.55-2.7-.38-.902-.57-1.765-.57-2.588 0-.539.094-1.053.284-1.528a3.65 3.65 0 0 1 .91-1.322c.507-.5 1.062-.744 1.647-.744.222 0 .444.047.642.142.205.095.388.238.53.443l1.837 2.59c.142.197.245.38.316.553.072.167.111.333.111.483 0 .19-.055.38-.166.562a2.693 2.693 0 0 1-.443.562l-.602.626a.424.424 0 0 0-.127.316c0 .064.008.12.024.183.024.063.048.11.063.158.143.261.388.601.737 1.013.356.412.736.831 1.147 1.251.428.42.84.808 1.26 1.164.41.348.751.586 1.02.728.04.016.088.04.143.063a.546.546 0 0 0 .198.032.436.436 0 0 0 .325-.134l.601-.594c.198-.198.388-.349.57-.444a1.06 1.06 0 0 1 .562-.166c.15 0 .309.032.483.103s.356.174.554.309l2.62 1.86c.207.143.35.309.436.507.08.198.127.396.127.617Z"/></svg>
